X: 36651
T: Shanvaghera
R: reel
M: 4/4
K: Dmajor
FG|Addc d2AB|=cAG=F E=CCE|DA,DE =FEFG|(3ABA G_B Adde|
=fedf edce|dcAF GE=CE|DEFG Ad=cA|GE=CE D2:|
A2|defg afdB|=c2 Gc EcGc|defg afdf|e=c (3cBc Addf|
afdf edce|dcAF GE=CE|DEFG Ae=cA|GE=CE D2:|

